[mml-score]
version=1
title=
author=
time=4/4
tempo=0T150
mml-track=MML@t150r1v9l16<f+f+f+f+f+f+f+f+f+f+f+f+f+f+f+f+f+f+f+f+f+f+f+f+f+f+f+f+f+f+f+f+f+f+f+f+f+f+f+f+f+f+f+f+f+f+f+f+f+f+f+f+f+f+f+f+f+f+f+f+f+f+f+f+f+f+f+f+f+f+f+f+f+f+f+f+f+f+f+f+f+f+f+f+f+f+f+f+f+f+f+f+f+f+f+f+f+f+f+f+f+f+f+f+f+f+f+f+f+f+f+f+f+f+f+f+f+f+f+f+f+f+f+f+f+f+f+f+,r1v9<cl16dr8.c4dr8.c4dr8.c4dr8.c4dr8.c4dr8.c4dr8.c4dr8.c4dr8.c4dr8.c4dr8.c4dr8.c4dr8.c4dr8.c4dr8.c4d,;
IDATA=H4sIAAAAAAAA/03VLUxcQRiG0Snc+Z+bIFeSsGkIqhJZWYFAEeRKZJMaJBKJrKysrKxEIpGVlUiCqiwhd9njnh3xirPJd8+OLr7thRBuwkkIH25eaxXqW3+nf9EP9F/63673Duhj+jN9SX+lb+kf9G/6kX7a9X6gV/Qn+gu9oa/pO/onfU//oZ93PRX6kD6lz+krGv8J/wn/Cf8J/wn/iH/EP+If8Y/4R/wj/hH/iH/EP+Gf8E/4J/wT/gn/hH/CP+Gf8E/4Z/wz/hn/jH/GP+Of8c/4Z/wz/hn/gn/Bv+Bf8C/4F/wL/gX/gn/Bv+Jf8a/4V/wr/hX/in/Fv+Jf8a/4N/wb/g3/hn/Dv+Hf8G/4N/wb/g3/jn/Hv+Pf8e/4d/w7/h3/jn/Hf+A/8B/4D/wH/gP/gf/Af+A/8B/4z/jP+M/4z/jPW/8QDsN6+QZsXn9/5L6vl9u9vL/f5fVyc5f3/Q3v97v39zu4Xm7c9p39yH5kP7Gf2E/sZ/Yz+5n9wn5hv7Jf2a/sN/Yb+439zn5nf7A/2B/sb/+nl//hUksNjgcAAA==
name=Drumkit
program=27
songProgram=-1
panpot=64
visible=true
