[mml-score]
version=1
title=
author=
time=4/4
tempo=0T150
mml-track=MML@t150r1v9l16<f+f+f+f+f+f+f+f+f+f+f+f+f+f+f+f+f+f+f+f+f+f+f+f+f+f+f+f+f+f+f+f+f+f+f+f+f+f+f+f+f+f+f+f+f+f+f+f+f+f+f+f+f+f+f+f+f+f+f+f+f+f+f+f+f+f+f+f+f+f+f+f+f+f+f+f+f+f+f+f+f+f+f+f+f+f+f+f+f+f+f+f+f+f+f+f+f+f+f+f+f+f+f+f+f+f+f+f+f+f+f+f+f+f+f+f+f+f+f+f+f+f+f+f+f+f+f+f+,r1v9<cl16dr8.c4dr8.c4dr8.c4dr8.c4dr8.c4dr8.c4dr8.c4dr8.c4dr8.c4dr8.c4dr8.c4dr8.c4dr8.c4dr8.c4dr8.c4d,;
IDATA=eJxN1S1MXEEYhtEp3PmfmyBXkrBpCKoSWVmBQBHkSmSTGiQSiaysrKysRCKRlZVIgqosIXfZ454d8YqzyXfPji6+7YUQbsJJCB9uXmsV6lt/p3/RD/Rf+t+u9w7oY/ozfUl/pW/pH/Rv+pF+2vV+oFf0J/oLvaGv6Tv6J31P/6Gfdz0V+pA+pc/pKxr/Cf8J/wn/Cf8J/4h/xD/iH/GP+Ef8I/4R/4h/xD/hn/BP+Cf8E/4J/4R/wj/hn/BP+Gf8M/4Z/4x/xj/jn/HP+Gf8M/4Z/4J/wb/gX/Av+Bf8C/4F/4J/wb/iX/Gv+Ff8K/4V/4p/xb/iX/Gv+Df8G/4N/4Z/w7/h3/Bv+Df8G/4N/45/x7/j3/Hv+Hf8O/4d/45/x3/gP/Af+A/8B/4D/4H/wH/gP/Af+M/4z/jP+M/4z1v/EA7DevkGbF5/f+S+r5fbvby/3+X1cnOX9/0N7/e79/c7uF5u3Pad/ch+ZD+xn9hP7Gf2M/uZ/cJ+Yb+yX9mv7Df2G/uN/c5+Z3+wP9gf7G//p5f/Cf+F5Q==
name=Drumkit
program=27
songProgram=-1
panpot=64
visible=true
