[mml-score]
version=1
title=
author=
time=4/4
tempo=0T60,48T120
mml-track=MML@t60r8t120rv12d+d+d+r21l19.<eg+,r.r19.v12<a9l16&ag+9&g+g+8&g+32a9&a,r2r.v12l21<c+c+32d+r19.c16.;
name=Track2
program=0
songProgram=-1
panpot=64
visible=true
mml-track=MML@t60r8t120r1v12n30,r1r8v12<<c,;
name=Track3
program=0
songProgram=-1
panpot=96
visible=true
mml-track=MML@t60r8t120rv12c64,,;
name=Track5
program=0
songProgram=-1
panpot=64
visible=true
mml-track=MML@t60r8t120r1v12<<b,r1r8v12<<g,r1r8v12n27;
name=Track8
program=0
songProgram=-1
panpot=32
visible=true
[marker]
0=Setup
48=Start
