[mml-score]
version=1
title=
author=
time=4/4
tempo=0T120
mml-track=MML@t120r16v12>cr8c+d,,;
name=Track1
program=0
songProgram=-1
panpot=64
visible=true
mml-track=MML@t120r8.v12>frr16fr8.d+d,,;
name=Track2
program=0
songProgram=-1
panpot=64
visible=true
