[mml-score]
version=1
title=
author=
time=4/4
tempo=0T60,48T120
mml-track=MML@t60r8t120rv12d+d+d+r21<e19.g+16.,r.l16r.v12<a8&a32g+9&g+g+9&g+a8&a32,r2r.v12l21<c+c+d+32r16.c19.;
name=Track2
program=0
songProgram=-1
panpot=64
mml-track=MML@t60r8t120r1v12n30,r1r8v12<<c,;
name=Track3
program=0
songProgram=-1
panpot=96
mml-track=MML@t60r8t120rv12c64,,;
name=Track5
program=0
songProgram=-1
panpot=64
mml-track=MML@t60r8t120r1v12<<b,r1r8v12<<g,r1r8v12n27;
name=Track8
program=0
songProgram=-1
panpot=32
